X:1
T:Title
%%score { 1 | 2 }
L:1/8
M:6/8
K:G
V:1 treble nm="Grand Piano"
V:2 treble 
V:1
 z3 z2[Q:1/4=100] d | d2 B G2 D | E2 G D2 [B,D] | [DG]2 A B2 [Dd] |[M:5/8] [DA]-[DA]- [DA]3 | %5
[M:1/8] [Fd] |[M:3/4] d2 B G2 D | E2 G D2 [B,D] | [DG]2 [EA] [DB]2 [CDA] | %9
[M:5/8] [B,DG]-[B,DG]- [B,DG]3 |] %10
V:2
 z3 z2 [G,B,G] | [G,B,G]2 [G,DG][K:bass] [G,B,D]2 [B,,G,] | [C,G,C]2 [E,G,C] [G,B,]2 [G,,G,] | %3
 [B,,G,]2 [D,F,D] [G,D]2 [B,,G,] |[M:5/8] [D,F,]-[D,F,]- [D,F,]3 |[M:1/8] [D,A,] | %6
[M:3/4][K:treble] [G,B,G]2 [G,DG][K:bass] [G,B,D]2 [B,,G,] | [C,G,C]2 [E,G,C] [G,B,]2 [G,,G,] | %8
 [B,,G,]2 [C,G,] [D,G,]2 D, |[M:5/8] G,,-G,,- G,,3 |] %10

